svg/UnitedNationsOCHA-Humanitarian/food_NFI_food_icon.svg

<svg xmlns="http://www.w3.org/2000/svg" viewBox="0 0 32 32" enable-background="new 0 0 32 32"><path fill="#407cca" d="m24.831 6.516l-3.153 2.938h-11.356l-3.152-2.938c0 0 1.569-2.192 4.155-2.479 2.531-.281 3.409 1.271 4.676 1.331 1.264-.06 2.149-1.612 4.675-1.331 2.59.286 4.155 2.479 4.155 2.479m1.909 18.857c0 0-.686 2.629-3.832 2.629h-13.809c-3.153 0-3.839-2.629-3.839-2.629-2.06-9.1 4.21-14.03 4.21-14.03h13.06c0 0 6.269 4.935 4.209 14.03m-8.401-8.146c1.422 1.42 2.952-3.103 2.952-3.103-.468.103-4.367 1.687-2.952 3.103m-2.303.679c.599.6 2.089.111 1.298-1.981-.704-1.865.314-2.672.314-2.672-.484.161-2.95 3.314-1.612 4.653m-1.93 1.93c.6.599 2.092.109 1.3-1.986-.705-1.862.314-2.671.314-2.671-.484.16-2.956 3.316-1.614 4.657m-1.937 3.344c-.258-.261-.325-.615-.486-.451l-1.587 1.938c-.178.18.28.947.655.569l1.869-1.574c.16-.16-.193-.227-.451-.482m1.251-3.341c-.705-1.865.315-2.672.315-2.672-.491.161-2.958 3.317-1.617 4.653.598.604 2.094.112 1.302-1.981m4.794 1.807c0 0-.811 1.018-2.672.312-2.095-.791-2.586.703-1.981 1.306 1.337 1.336 4.496-1.136 4.653-1.618m1.987-1.985c0 0-.808 1.014-2.675.308-2.09-.786-2.584.706-1.981 1.307 1.34 1.338 4.494-1.132 4.656-1.615m1.93-1.929c0 0-.813 1.021-2.672.312-2.1-.791-2.586.703-1.985 1.303 1.337 1.339 4.495-1.128 4.657-1.615"/></svg>

<?xml version="1.0" encoding="utf-8"?>
<!-- Generator: Adobe Illustrator 16.0.3, SVG Export Plug-In . SVG Version: 6.00 Build 0)  -->
<!DOCTYPE svg PUBLIC "-//W3C//DTD SVG 1.1//EN" "http://www.w3.org/Graphics/SVG/1.1/DTD/svg11.dtd">
<svg version="1.1" id="Layer_1" xmlns="http://www.w3.org/2000/svg" xmlns:xlink="http://www.w3.org/1999/xlink" x="0px" y="0px"
	 width="32px" height="32px" viewBox="0 0 32 32" enable-background="new 0 0 32 32" xml:space="preserve">
<path fill="#407CCA" d="M24.831,6.516l-3.153,2.938H10.322L7.17,6.516c0,0,1.569-2.192,4.155-2.479
	c2.531-0.281,3.409,1.271,4.676,1.331c1.264-0.06,2.149-1.612,4.675-1.331C23.266,4.323,24.831,6.516,24.831,6.516z M26.74,25.373
	c0,0-0.686,2.629-3.832,2.629H9.099c-3.153,0-3.839-2.629-3.839-2.629C3.2,16.276,9.47,11.341,9.47,11.341h13.061
	C22.531,11.341,28.8,16.276,26.74,25.373z M18.339,17.227c1.422,1.42,2.952-3.103,2.952-3.103
	C20.823,14.227,16.924,15.811,18.339,17.227z M16.036,17.906c0.599,0.6,2.089,0.111,1.298-1.981
	c-0.704-1.865,0.314-2.672,0.314-2.672C17.164,13.414,14.698,16.567,16.036,17.906z M14.106,19.836c0.6,0.599,2.092,0.109,1.3-1.986
	c-0.705-1.862,0.314-2.671,0.314-2.671C15.236,15.339,12.764,18.495,14.106,19.836z M12.169,23.18
	c-0.258-0.261-0.325-0.615-0.486-0.451l-1.587,1.938c-0.178,0.18,0.28,0.947,0.655,0.569l1.869-1.574
	C12.78,23.502,12.427,23.435,12.169,23.18z M13.42,19.839c-0.705-1.865,0.315-2.672,0.315-2.672
	c-0.491,0.161-2.958,3.317-1.617,4.653C12.716,22.424,14.212,21.932,13.42,19.839z M18.214,21.646c0,0-0.811,1.018-2.672,0.312
	c-2.095-0.791-2.586,0.703-1.981,1.306C14.898,24.6,18.057,22.128,18.214,21.646z M20.201,19.661c0,0-0.808,1.014-2.675,0.308
	c-2.09-0.786-2.584,0.706-1.981,1.307C16.885,22.614,20.039,20.144,20.201,19.661z M22.131,17.732c0,0-0.813,1.021-2.672,0.312
	c-2.1-0.791-2.586,0.703-1.985,1.303C18.811,20.686,21.969,18.219,22.131,17.732z"/>
</svg>
